X:344
T:OldTown-E-Bald.tef
C:
N:Transcribed by Larry Tanner
R:bluegrass
L:1/8
Q:1/4=250
M:4/4
K:C
|: "E"E^F ^GA B^c e2 | [^ge][ge] [ge][ge] [ge][ge] [g2e2] | E^F ^GA B^c e2 | "A"[ge][ge] [ge][ge] [ge][ge] [g2e2] | 
E^F ^GA B^c e2 | "E"[^ge][ge] [ge][ge] [ge][ge] [g2e2] | {g}^ge =g^f e^c Bc | 
e2 {^c}e2 e4 :|: {g}^g4 {=g}^g4 | ^g^f e^c B4 | c^c e2 cB A^F | ^GB2G B4 | {g}^g4 {=g}^g4 | 
^g^f e^c B2 A=c |1 ^c"A"a2c a2 A_B | "G"Bg2B g4 :|2 ^c"A"a2c a4 | "E"^g^f e^c BA ^G^F | 
E8 | z8 | z8 | z8 | z8 | z8 | 


